!!!OTL: Tannebaum.
!!!ARE: Europa, Mitteleuropa, Deutschland
!!!SCT: A0491
!!!TXL: @@GMH
!!!YEM: Copyright 1995, estate of Helmut Schaffrath.
**kern	**text
*M4/4	*
*met(c|)	*
*clefC1	*
*k[b-]	*
*g:	*
!LO:TX:a:t=G moll.	!
{4g/	Ach
=1	=1
4.g/	Tan-
8f#	-ne-
4g/	-baum,
4a	ach
=2	=2
4.b-	Tan-
8b-	-ne-
4g}	-baum,
{4a	du
=3	=3
4b-	biſt
4fn	ein
4g	ed-
4a	-ler
=4	=4
2b-	Ʒweig!
4r}	.
{4b-	Du
=5	=5
4.b-	grü-
8b-	-neſt
4b-	uns
4b-	den
=6	=6
2a	Win-
4a}	-ter,
{4dd	die
=7	=7
4g	lie-
4g	-be
4f#	Som-
4f#	-mer-
=8	=8
2g/	-ʒeit.
4r}	.
==	==
!!!GTL: Gemischter Inhalt
!!!AGN: Romanze, Ballade, Lied
!! M. Franck, Fasc. Quodl. 1611  No. 3.
!!!ONB: ESAC (Essen Associative Code) Database: ALTDEU
!!!AMT: simple quadruple
!!!AIN: vox
!!!EED: Helmut Schaffrath
!!!EEV: 1.0
!!!URL-scan: https://rosdok.uni-rostock.de/mcrviewer/recordIdentifier/rosdok_ppn738218359/iview2/phys_0678.iview2?x=-1272.8135649766991&y=505.4203623216599&scale=0.3197610882076923&rotation=0&layout=singlePageLayout&logicalDiv=log_0018
!!!ENC: Anna Maria Matuszewska
!!!EEV: 2024/19/03
*-	*-
